!!!!SEGMENT: pl-kk--kk-i-389--003-001_anonim--missa-no-3-rorate.krn
!!!cenid: 17xx:2468
!!!COM: Anonim
!!!COM-rismID: pe30004985
!!!CDT:
!!!CNT:
!!!OPR: [Missa] No. 3.
!!!OTL: Rorate
!!!OMV: 001
!!!PDT:
!!!AGN: Sacred; Mass
!!!YEC: Copyright 2022 Narodowy Instytut Fryderyka Chopina (https://polishscores.org)
!!!YEM: License CC-BY-4.0 (https://creativecommons.org/licenses/by/4.0)
!!!SMS-siglum: PL-Kk
!!!SMS-shelfmark: Kk.I.389
!!!SMS-variant:
!!!SMS-altvar:
!!!SMS-shelfwork: 003-001 M
!!!NIFC-rismSourceID: 1001146182
!!!NIFC-rismChildID: 1001146400
!!!NIFC-islandoraID: pl-kk:6976
!!!URL-pdf-islandora: https://repozytorium.nifc.pl/islandora/object/pl-kk%3A6976/datastream/PDF/view
!!!URL-scan: https://polish.musicsources.pl/pl/lokalizacje/galeria/rekopisy/5999/1 @EN{Scan on Polish Music Sources Website} @PL{Skany w portalu Dziedzictwo Muzyki Polskiej w otwartym dostępie}
!!!IIIF:
!!!ONB-nifc: UWAGA: S – skan 6-7, A – 25-26 , T – 44-45 , B – 63-64 . Części Mszy: Rorate, Kyrie, Gloria, Graduale, Sanctus, Benedictus, Agnus, Dona
!!!AIN: 1 alto 1 bass 1 soprn 1 tenor
!!!key: B-
**kern	**text	**kern	**text	**text	**kern	**text	**kern	**text
*part4	*part4	*part3	*part3	*part3	*part2	*part2	*part1	*part1
*staff4	*staff4	*staff3	*staff3	*staff3	*staff2	*staff2	*staff1	*staff1
*I"Basso.	*	*I"Tenore.	*	*	*I"Alto.	*	*I"Soprano.	*
*I'[B]	*	*I'[T]	*	*	*I'[A]	*	*I'[S]	*
*ICvox	*	*ICvox	*	*	*ICvox	*	*ICvox	*
*Ibass	*	*Itenor	*	*	*Ialto	*	*Isoprn	*
*clefF4	*	*clefC4	*	*	*clefC3	*	*clefC1	*
*k[b-e-]	*	*k[b-e-]	*	*	*k[b-e-]	*	*k[b-e-]	*
*B-:	*	*B-:	*	*	*B-:	*	*B-:	*
*M2/2	*	*M2/2	*	*	*M2/2	*	*M2/2	*
*met(C|)	*	*met(C|)	*	*	*met(C|)	*	*met(C|)	*
=1	=1	=1	=1	=1	=1	=1	=1	=1
!!LO:TX:t=P:problem: all\right	!	!	!	!	!	!	!
4r	.	4r	.	.	4r	.	4r	.
4BB-/	Ro-	4d\	Ro-	.	4f\	Ro-	4b-\	Ro-
4D/	-ra-	4d\	-ta-	.	4f\	-ra-	4b-\	-ra-
4BB-/	-te	4d\	-te	.	4f\	-te	4b-\	-te,
=2	=2	=2	=2	=2	=2	=2	=2	=2
*2\right	*	*	*	*	*2\right	*	*	*
2D\	ce-	4d\	Ce-	.	2f\	ce-	4b-\	Ce-
.	.	4f\	.	.	.	.	4dd\	.
4E-\	-li	4e-X\	-li	.	4g\	-li	4cc\	-li
4E-\	Ro-	4d\	ro-	.	4g\	ro-	4b-\	ro-
=3	=3	=3	=3	=3	=3	=3	=3	=3
4F\	-ra-	4c\	-ra-	.	4f\	-ra-	4a\	-ra-
4BB-/	-te,	4d\	-te,	.	4f\	-te	4b-\	-te,
4r	.	4r	.	.	4r	.	4r	.
4D\	Ro-	4d\	Ro-	.	4f\	Ro-	4b-\	Ro-
=4	=4	=4	=4	=4	=4	=4	=4	=4
*	*	*	*	*	*	*	*2\right	*
4E-\	-ra-	2G/	-ra-	.	4g\	-ra	2b-\	-ra-
4D\	.	.	.	.	4f\	.	.	.
*	*	*2\right	*	*	*	*	*	*
4E-\	-te	2c\	-te	.	4g\	te	2ee-\	.
4C/	Ro-	.	.	.	4e-X\	Ro-	.	.
=5	=5	=5	=5	=5	=5	=5	=5	=5
4F\	-ra-	2A\	Ce-	.	4an\	-ra-	2cc\	.
4E-\	.	.	.	.	4g\	.	.	.
4F\	.	2d\	-li	.	4a\	.	2ff\	-te
4D\	-te	.	.	.	4f\	-te	.	.
!LO:LB:g=original	!	!	!	!	!LO:LB:g=original	!	!	!
=6	=6	=6	=6	=6	=6	=6	=6	=6
4G\	ce-	4B-\	ce-	.	4g\	Ce-	4dd\	Ce-
4E-\	-li	4c\	-li	.	4g\	-li	4ee-\	-li
4F\	de-	4.A\	de-	.	4.f\	de-	4.cc\	de-
4FF/	-su-	.	.	.	.	.	.	.
.	.	8A-\	-su-	.	8f\	-su-	8cc\	-su-
!	!	!	!	!	!	!	!LO:LB:g=original	!
=7	=7	=7	=7	=7	=7	=7	=7	=7
4BB-/	-per	4B-\	-per,	.	4f\	-per,	4dd\	-per,
4B-\	Ro-	4F/	Ro-	.	4d\	Ro-	4b-\	Ro-
!	!	!LO:LB:g=original	!	!	!	!	!	!
4B-\	-ra-	4F/	-ra-	.	4d\	-ra-	4b-\	-ra-
4B-\	-te	4F/	-te	.	4d\	-te	4b-\	-te
=8	=8	=8	=8	=8	=8	=8	=8	=8
2B-\	ce-	2G/	ce-	.	2en\	ce-	2.cc\	ce-
2A\	-li	2A\	-li	.	2f\	-li	.	.
.	.	.	.	.	.	.	4cc\	-li
=9	=9	=9	=9	=9	=9	=9	=9	=9
2.G\	de-	2.B-\	de-	.	2.f\	de-	2.dd\	de-
4G\	-su-	4B-\	-su-	.	4en\	-su-	4b-\	-su-
=10	=10	=10	=10	=10	=10	=10	=10	=10
4F\	-per,	4A\	-per,	.	4f\	-per	4cc\	-per,
4B-\	et	4r	.	.	4d\	et	4r	.
4B-\	nu-	2r	.	.	4d\	nu-	2r	.
4B-\	-bes	.	.	.	4d\	-bes	.	.
=11	=11	=11	=11	=11	=11	=11	=11	=11
4d\	plu-	4r	.	.	4f\	plu-	4r	.
4B-\	-ant	4B-\	et	.	4d\	-ant	4dd\	et
2r	.	4B-\	nu-	.	2r	.	4dd\	nu-
.	.	4B-\	-bes	.	.	.	4dd\	-bes
=12	=12	=12	=12	=12	=12	=12	=12	=12
4r	.	4d\	plu-	.	4r	.	4ff\	plu-
4B-\	et	4B-\	-ant,	.	4f\	et	4dd\	-ant
4B-\	nu-	4r	.	.	4f\	nu-	4r	.
4B-\	-bes	4B-\	et	.	4f\	-bes	4dd\	et
!LO:LB:g=original	!	!	!	!	!LO:LB:g=original	!	!	!
=13	=13	=13	=13	=13	=13	=13	=13	=13
4d\	plu-	4B-\	nu-	.	4f\	plu-	4dd\	nu-
4B-\	-ant	4B-\	-bes	.	4f\	-ant,	4dd\	-bes
4F\	nu-	4c\	plu-	.	4f\	nu-	4cc\	plu-
4B-\	-bes	4B-\	-ant	.	4f\	-bes	4dd\	-ant
!	!	!	!	!	!	!	!LO:LB:g=original	!
=14	=14	=14	=14	=14	=14	=14	=14	=14
4G\	plu-	4B-\	plu-	.	4en\	plu-	4g\	plu-
4F\	-ant	4c\	-ant	.	4f\	-ant	4a\	-ant
2C/	ju-	2c\	ju-	.	4f\	ju-	2g\	ju-
.	.	.	.	.	4e\	.	.	.
!	!	!LO:LB:g=original	!	!	!	!	!	!
=15	=15	=15	=15	=15	=15	=15	=15	=15
4FF/	-stum,	4c\	-stum,	.	4f\	-stum	4a\	-stum
4r	.	4r	.	.	4f\	et	4a\	a-
2r	.	2r	.	.	4f\	nu-	4a\	-pe-
.	.	.	.	.	4f\	-bes	4a\	-ri-
=16	=16	=16	=16	=16	=16	=16	=16	=16
4r	.	4r	.	.	4a\	plu-	4cc\	-a-
4F\	et	4A\	et	.	4f\	-ant,	4a\	-tur,
4F\	nu-	4A\	nu-	.	2r	.	2r	.
4F\	-bes	4A\	-bes	.	.	.	.	.
=17	=17	=17	=17	=17	=17	=17	=17	=17
4A\	plu-	4c\	plu-	.	4r	.	4r	.
4F\	-ant	4B-\	-ant	.	4f\	et	4cc\	et
4A\	nu-	4A\	nu-	.	4f\	nu-	4cc\	nu-
4A\	-bes	4c\	-bes	.	4f\	-bes	4cc\	-bes
=18	=18	=18	=18	=18	=18	=18	=18	=18
4B-\	plu-	4d\	plu-	.	4f\	plu-	4b-\	plu-
4F\	-ant	4c\	-ant	.	4f\	-ant	4a\	-ant
4c\	ju-	2c\	ju-	.	4f\	ju-	2g\	ju-
4C/	.	.	.	.	4en\	.	.	.
!	!	!	!	!	!LO:LB:g=original	!	!	!
=19	=19	=19	=19	=19	=19	=19	=19	=19
4F\	-stum,	4c\	-stum,	.	4f\	-stum	4a\	-stum,
4r	.	4r	.	.	4r	.	4f\	a-
2r	.	2r	.	.	2r	.	4a\	-pe-
.	.	.	.	.	.	.	4b-\	-ri-
!LO:LB:g=original	!	!	!	!	!	!	!	!
=20	=20	=20	=20	=20	=20	=20	=20	=20
!LO:TX:a:t=3.	!	!LO:TX:a:t=2	!	!	!	!	!	!
0r	.	0r	.	.	4r	.	2.cc\	-a-
.	.	.	.	.	4c\	a-	.	.
.	.	.	.	.	4en\	-pe-	.	.
.	.	.	.	.	4f\	-ri-	4cc\	-tur
!	!	!	!	!	!	!	!LO:LB:g=original	!
=21	=21	=21	=21	=21	=21	=21	=21	=21
.	.	.	.	.	2.g\	-a-	4b-\	ter-
.	.	.	.	.	.	.	4a\	.
.	.	.	.	.	.	.	4b-\	.
.	.	.	.	.	4c\	-tur	4g\	.
=22	=22	=22	=22	=22	=22	=22	=22	=22
1r	.	4r	.	.	4f\	a-	1a	.
.	.	4F/	a-	.	4f\	.	.	.
.	.	4A/	-pe-	.	4f\	-pe-	.	.
.	.	4B-/	-ri-	.	4f\	-ri-	.	.
=23	=23	=23	=23	=23	=23	=23	=23	=23
4r	.	2.c\	-a-	.	2en\	-a-	2g\	-ra,
4C/	a-	.	.	.	.	.	.	.
4En\	-pe-	.	.	.	2e\	-tur	2r	.
4F\	-ri-	4c\	-tur	.	.	.	.	.
!	!	!LO:LB:g=original	!	!	!	!	!	!
=24	=24	=24	=24	=24	=24	=24	=24	=24
!	!	!	!	!	!	!	!LO:TX:a:t=3.	!
2.G\	-a-	4B-\	ter-	.	2d\	ter-	0r	.
.	.	4A\	.	.	.	.	.	.
.	.	4B-\	.	.	4d\	.	.	.
4C/	-tur	4G\	.	.	4c\	-ra	.	.
=25	=25	=25	=25	=25	=25	=25	=25	=25
4F\	ter-	2A\	.	.	2c\	ter-	.	.
4En\	.	.	.	.	.	.	.	.
4F\	.	4B-\	-ra,	.	4d\	-ra	.	.
4D\	.	4B-\	a-	.	4f\	a-	.	.
!	!	!	!	!	!LO:LB:g=original	!	!	!
=26	=26	=26	=26	=26	=26	=26	=26	=26
4En\	-ra,	4c\	-pe-	.	4g\	-pe-	1r	.
4C\	a-	4c\	-ri-	.	4g\	-ri-	.	.
4F\	-pe-	4A\	-a-	.	4c/	-a-	.	.
4F\	-ri-	4A\	-tur	.	4c/	-tur	.	.
=27	=27	=27	=27	=27	=27	=27	=27	=27
2F\	-a-	1B-	ter-	.	2g\	ter-	2r	.
4En\	-tur	.	.	.	4g\	-ra	4r	.
4E\	a-	.	.	.	4g\	a-	4cc\	a-
=28	=28	=28	=28	=28	=28	=28	=28	=28
4F\	-pe-	2A\	-ra,	.	4f\	-pe-	4cc\	-pe-
4F\	-ri-	.	.	.	4f\	-ri-	4cc\	-ri-
4En\	-a-	2r	.	.	4g\	-a-	4cc\	-a-
4E\	-tur	.	.	.	4g\	-tur	4cc\	-tur
!LO:LB:g=original	!	!	!	!	!	!	!	!
=29	=29	=29	=29	=29	=29	=29	=29	=29
1D	ter-	4r	.	.	1f	ter-	2cc\	ter-
.	.	4F/	a-	.	.	.	.	.
.	.	4A/	-pe-	.	.	.	2bn\	.
.	.	4B-\	-ri-	.	.	.	.	.
=30	=30	=30	=30	=30	=30	=30	=30	=30
2C/	-ra	2c\	-a-	.	4en\	-ra	2cc\	-ra,
.	.	.	.	.	4c\	a-	.	.
2c\	a-	4c\	-tur	.	4e\	-pe-	2g\	a-
.	.	4c\	a-	.	4f\	-ri-	.	.
=31	=31	=31	=31	=31	=31	=31	=31	=31
2B-X\	-pe-	2d\	-pe-	.	2g\	-a-	2b-X\	-pe-
2G\	-ri-	2d\	-ri-	.	2g\	-tur	2b-\	-ri-
!	!	!LO:LB:g=original	!	!	!	!	!LO:LB:g=original	!
=32	=32	=32	=32	=32	=32	=32	=32	=32
2A\	-a-	2c\	-a-	.	[1f	ter-	2a\	-a-
2F\	-tur	2c\	-tur	.	.	.	2a\	-tur
=33	=33	=33	=33	=33	=33	=33	=33	=33
2G\	ter-	1B-	ter-	.	2f\]	.	1g	ter-
2C/	.	.	.	.	2en\	.	.	.
!	!	!	!	!	!LO:LB:g=original	!	!	!
=34	=34	=34	=34	=34	=34	=34	=34	=34
4F\	-ra,	4A/	-ra,	.	4f\	-ra,	4a\	-ra
4AA/	a-	4A/	ter-	.	2f\	ter-	4cc\	ter-
4BB-/	-pe-	4G/	.	.	.	.	4b-\	.
4C/	-ri-	4c\	.	.	4en\	.	4g\	.
=35	=35	=35	=35	=35	=35	=35	=35	=35
4F\	-a-	4c\	-ra,	.	2f\	-ra	2a\	-ra
4FF/	-tur	4A\	et	.	.	.	.	.
2BB-/	ter-	2d\	ger-	.	4r	.	4r	.
.	.	.	.	.	4d\	et	4f/	et
=36	=36	=36	=36	=36	=36	=36	=36	=36
!LO:N:xstem:cue:vis=4	!	!LO:N:xstem:cue:vis=4	!	!	!	!	!	!
4BB-/	.	4d\	.	.	2.g\	ger-	2.b-\	ger-
8AA/L	.	8c\L	.	.	.	.	.	.
8GG/J	.	8B-\J	.	.	.	.	.	.
2C/	.	2en\	.	.	.	.	.	.
.	.	.	.	.	8f\L	.	8a\L	.
.	.	.	.	.	8e-\J	.	8g\J	.
!LO:LB:g=original	!	!	!	!	!	!	!	!
=37	=37	=37	=37	=37	=37	=37	=37	=37
!	!	!LO:N:xstem:cue:vis=4	!	!	!	!	!	!
4C/	.	4eny\	.	.	2.an\	.	2.cc\	.
8D/L	.	8d\L	.	.	.	.	.	.
8C/J	.	8c\J	.	.	.	.	.	.
2D\	.	2f\	.	.	.	.	.	.
.	.	.	.	.	8g\L	.	8b-\L	.
.	.	.	.	.	8f\J	.	8a\J	.
=38	=38	=38	=38	=38	=38	=38	=38	=38
!LO:N:xstem:cue:vis=4	!	!LO:N:xstem:cue:vis=4	!	!	!	!	!	!
4D\	.	4f\	.	.	2.b-X\	.	2.dd\	.
8C/L	.	8e-\L	.	.	.	.	.	.
8BB-/J	.	8d\J	.	.	.	.	.	.
2En\	.	2G/	.	.	.	.	.	.
.	.	.	.	.	8a\L	.	8cc\L	.
.	.	.	.	.	8g\J	.	8b-\J	.
=39	=39	=39	=39	=39	=39	=39	=39	=39
!LO:N:xstem:cue:vis=4	!	!LO:N:xstem:cue:vis=4	!	!	!	!	!	!
4E-\	.	4G/	.	.	4g\	.	2.cc\	.
8D\L	.	8F/L	.	.	8f\L	.	.	.
8C\J	.	8E-/J	.	.	8g\J	.	.	.
2F\	-ra,	2A\	.	.	4a\	.	.	.
.	.	.	.	.	8g\L	.	8b-\L	.
.	.	.	.	.	8f\J	.	8a\J	.
!	!	!LO:LB:g=original	!	!	!	!	!LO:LB:g=original	!
=40	=40	=40	=40	=40	=40	=40	=40	=40
4BB-/	et	2B-\	.	.	2f\	.	2dd\	.
4GG/	.	.	.	.	.	.	.	.
!	!	!	!	!	!LO:LB:g=original	!	!	!
4.C/	ger-	4G/	.	.	4en\	-mi-	4cc\	.
.	.	4G/	-mi-	.	4e\	-net,	4cc\	-mi-
8C/	-mi-	.	.	.	.	.	.	.
=41	=41	=41	=41	=41	=41	=41	=41	=41
4FF/	-net	2A\	-net,	.	4f\	et	2cc\	-net,
4F\	et	.	.	.	4a\	ger-	.	.
2D\	ger-	4r	.	.	2f\	.	4r	.
.	.	4c\	et	.	.	.	4ff\	et
=42	=42	=42	=42	=42	=42	=42	=42	=42
!LO:N:xstem:cue:vis=4	!	!	!	!	!LO:N:xstem:cue:vis=4	!	!	!
4D\	.	2.B-\	ger-	.	4f\	.	2.dd\	ger-
8C/L	.	.	.	.	8e-X\L	.	.	.
8BB-/J	.	.	.	.	8d\J	.	.	.
2E-X\	.	.	.	.	2g\	.	.	.
.	.	8A\L	.	.	.	.	8cc\L	.
.	.	8G\J	.	.	.	.	8b-\J	.
!LO:LB:g=original	!	!	!	!	!	!	!	!
=43	=43	=43	=43	=43	=43	=43	=43	=43
!	!	!	!	!	!LO:N:xstem:cue:vis=4	!	!	!
4E-X\	.	2.c\	.	.	4g\	.	2.ee-X\	.
8D\L	.	.	.	.	8f\L	.	.	.
8C\J	.	.	.	.	8e-\J	.	.	.
2F\	.	.	.	.	2an\	.	.	.
.	.	8B-\L	.	.	.	.	8dd\L	.
.	.	8A\J	.	.	.	.	8cc\J	.
=44	=44	=44	=44	=44	=44	=44	=44	=44
!LO:N:xstem:cue:vis=4	!	!	!	!	!LO:N:xstem:cue:vis=4	!	!	!
4F\	.	2.d\	.	.	4a\	.	2.ff\	.
8E-\L	.	.	.	.	8g\L	.	.	.
8D\J	.	.	.	.	8f\J	.	.	.
2G\	.	.	.	.	2b-X\	.	.	.
.	.	8c\L	.	.	.	.	8ee-\L	.
.	.	8B-\J	.	.	.	.	8dd\J	.
=45	=45	=45	=45	=45	=45	=45	=45	=45
!LO:N:xstem:cue:vis=4	!	!	!	!	!LO:N:xstem:cue:vis=4	!	!	!
4G\	.	2B-\	.	.	4b-\	.	2.ee-\	.
8F\L	.	.	.	.	8an\L	.	.	.
8E-\J	.	.	.	.	8g\J	.	.	.
2F\	.	4c\	.	.	2a\	.	.	.
.	.	4A\	.	.	.	.	4dd\	.
=46	=46	=46	=46	=46	=46	=46	=46	=46
4F\	.	4A\	.	.	2.f\	.	4cc\	.
4BB-/	.	2B-\	.	.	.	.	4dd\	.
4F\	.	.	.	.	.	.	4.cc\	.
4FF/	-mi-	4A\	-mi-	.	4f\	-mi-	.	.
.	.	.	.	.	.	.	8cc\	-mi-
!	!	!LO:LB:g=original	!	!	!LO:LB:g=original	!	!LO:LB:g=original	!
=47	=47	=47	=47	=47	=47	=47	=47	=47
4BB-/	-net,	2B-\	-net,	.	4f\	-net	2dd\	-net,
4D\	et	.	.	.	2f\	et	.	.
4G\	ger-	2B-\	et	.	.	.	(4dd\	et
4C\	.	.	.	.	4e-X\	.	4cc\)	.
=48	=48	=48	=48	=48	=48	=48	=48	=48
4F\	.	4A\	ger-	.	4e-\	ger-	4cc\	ger-
4BB-/	.	2B-\	.	.	4f\	.	4dd\	.
4F\	.	.	.	.	4.f\	.	4.cc\	.
4FF/	-mi-	4A\	-mi-	.	.	.	.	.
.	.	.	.	.	8f\	-mi-	8cc\	-mi-
!LO:LB:g=original	!	!	!	!	!	!	!	!
=49	=49	=49	=49	=49	=49	=49	=49	=49
2BB-/	-net,	2B-\	-net,	.	2f\	-net,	2dd\	-net,
4r	.	4r	.	.	4r	.	4r	.
4D\	sal-	4B-\	Sal-	.	4d\	sal-	4f/	sal-
=50	=50	=50	=50	=50	=50	=50	=50	=50
2E-X\	.	4G/	.	.	4B-\	.	2g\	.
.	.	4c\	.	.	4e-X\	.	.	.
2F\	.	4A\	.	.	4c\	.	2a\	.
.	.	4d\	.	.	4f\	.	.	.
=51	=51	=51	=51	=51	=51	=51	=51	=51
2G\	.	4B-\	.	.	4d\	.	2b-\	.
.	.	4e-X\	.	.	4g\	.	.	.
2A\	.	4c\	.	.	4e-X\	.	2cc\	.
.	.	4f\	.	.	4a\	.	.	.
=52	=52	=52	=52	=52	=52	=52	=52	=52
4B-\	.	4B-\	.	.	4f\	.	4dd\	.
4E-\	-va-	4B-\	-va-	.	4g\	-va-	4cc\	-va-
2F\	-to-	4B-\	-to-	.	2f\	-to-	2cc\	-to-
.	.	4A\	.	.	.	.	.	.
=53	=53	=53	=53	=53	=53	=53	=53	=53
2BB-/	-rem	2B-\	-rem,	.	2f\	-rem,	2dd\	-rem,
4r	.	4r	.	.	4r	.	4r	.
4D\	Sal-	4B-\	sal-	.	4d\	sal-	4f/	sal-
!	!	!LO:LB:g=original	!	!	!LO:LB:g=original	!	!LO:LB:g=original	!
=54	=54	=54	=54	=54	=54	=54	=54	=54
2E-\	.	4G/	.	.	4A/	.	2g\	.
.	.	4c\	.	.	4e-X\	.	.	.
2F\	.	4A\	.	.	4c\	.	2a\	.
.	.	4d\	.	.	4f\	.	.	.
=55	=55	=55	=55	=55	=55	=55	=55	=55
2G\	.	4B-\	.	.	4d\	.	2b-\	.
.	.	4e-X\	.	.	4g\	.	.	.
2A\	.	4c\	.	.	4e-X\	.	2cc\	.
.	.	4f\	.	.	4an\	.	.	.
=56	=56	=56	=56	=56	=56	=56	=56	=56
4B-\	.	4B-\	.	.	4f\	.	4dd\	.
4E-\	-va-	4B-\	-va-	.	4g\	-va-	4ee-\	-va-
4F\	-to-	4B-\	-to-	.	2f\	-to-	2cc\	-to-
4FF/	.	4A\	.	.	.	.	.	.
!LO:LB:g=original	!	!	!	!	!	!	!	!
=57	=57	=57	=57	=57	=57	=57	=57	=57
4BB-/	-rem	2B-\	-rem	.	2f\	-rem	4dd\	-rem
8B-\L	Sal-	.	.	.	.	.	8dd\L	Sal-
8A\J	.	.	.	.	.	.	8cc\J	.
4G\	.	4r	.	.	4r	.	[2b-\	.
4F\	-ve-	8d\L	sal-	al-	4b-\	Sal-	.	.
.	.	8c\J	.	.	.	.	.	.
=58	=58	=58	=58	=58	=58	=58	=58	=58
!	!	!	!	!	!	!	!LO:N:xstem:cue:vis=4	!
4E-\	-to-	4B-\	.	.	4g\	.	4b-\]	.
4C/	.	4c\	-va-	-le-	4g\	-va-	4b-\	-va-
2F\	.	2c\	-to-	-lu-	2f\	-to-	4b-\	-to-
.	.	.	.	.	.	.	4a\	.
=59	=59	=59	=59	=59	=59	=59	=59	=59
2BB-/	-rem.	2d\	-rem.	-ia	2f\	-rem.	2b-\	-rem.
2r	.	2r	.	.	2r	.	2r	.
==	==	==	==	==	==	==	==	==
*-	*-	*-	*-	*-	*-	*-	*-	*-
!!!system-decoration: [(s1,s2,s3,s4)]
!!!ENC: Berenika Jozajtis
!!!END: 2023-11-09
!!!EED: Jan Barakat
!!!EEV: 2023-11-27
